X: 21375
T: Kerry Mills'
R: barndance
M: 4/4
K: Dmajor
|:F>G|A>AB>A f2 f2|(3ABA B>A f2 f2|g>fe>d c2 d2|1 (3efe (3dcB A2:|2 (3efe d>c d2||
|:f>g|a>ab>a f2 f2|a>ab>a f2 f2|1 g>fe>d c2 d2|(3efe (3dcB A2:|2 g>fe>d c>AB>c|(3efe d2 d2||

